X:01
T: I'm Going Back To Old Kentucky
C: Bill Monroe
S: Arr. Mike Compton
S: MandoZine TablEdit Archives
Z: TablEdited by Mike Stangeland for MandoZine
L: 1/8
Q: 240
M: 2/4
K: A
 z4 | zE/E/ EF | "A"AA/A/ A2 | A/B/=c/B/ c/B/A/A/ | FE E2 | EE/E/ A/c/c/c/ | e4 |
 e/e/f/e/ c/B/A/c/ | "E"BB/A/ G/A/F/G/ | EE/E/ E/F/F/A/ | A4 | A/B/=c/B/ c/B/A/A/ |
 FE E2 | EE/E/ A/c/c/e/ | e4 | "E"e/e/f/e/ c/A/B/A/ | "A"Ae/e/ f/e/g/e/ | [ac][a/c/][a/c/] [a2c2] |
